**kern	**kern	**quality
*staff1	*staff1	*staff1
!!Two 16 bar forms AB
*head1[head1a,head1aa]	*head1[head1a,head1aa]	*head1[head1a,head1aa]
*solo1[solo1a,solo1aa]	*solo1[solo1a,solo1aa]	*solo1[solo1a,solo1aa]
*solo2[solo2a,solo2aa]	*solo2[solo2a,solo2aa]	*solo2[solo2a,solo2aa]
=1-	=1-	=1-
*clefG2	*clefG2	*clefG2
*k[]	*k[]	*k[]
*A-:	*A-:	*A-:
*M4/4	*M4/4	*M4/4
4r	1A-:	:maj
8r	.	.
*>head1a	*>head1a	*>head1a
{[8gg\	.	.
8gg\L]	.	.
16aa-\L	.	.
16gg\J	.	.
8ff\	.	.
8ee\J	.	.
=2	.	.
8ee-\L	1F:	:dom
8dd-\	.	.
8cc\	.	.
8b-\J	.	.
8a/L	.	.
8c/	.	.
8e-/	.	.
8f/J	.	.
=3	.	.
12g-/L	1B-:	:dom
12a-/	.	.
12g-/J	.	.
8f/L	.	.
8e-/J	.	.
8d/L	.	.
8f/	.	.
8a-/	.	.
8cc/J	.	.
=4	.	.
8g/L	1B-:	:dom
8f/J}	.	.
4r	.	.
8r	.	.
{[8e/L	.	.
8e/]	.	.
8d/J	.	.
=5	.	.
8e-/L	1B-:	:min
8A/	.	.
8B-/	.	.
8d-/J	.	.
8f/L	.	.
8a-/	.	.
8cc/	.	.
8ee-/J	.	.
=6	.	.
8dd-/L	1E-:	:dom
8f/	.	.
8a-/	.	.
8cc/J	.	.
8b/L	.	.
8e/	.	.
8e-/	.	.
8d-/J	.	.
=7	.	.
8c/L	1A-:	:maj
8e-/	.	.
8g/	.	.
8b-/J	.	.
4a-/	.	.
8e-/L	.	.
8f/J	.	.
=8	.	.
8g-\L	2E-:	:min
8b-\	.	.
8dd-\	.	.
8ff\J	.	.
8ee\L	2A-:	:dom
8cc\J}	.	.
4r	.	.
=9	.	.
{[2ee-\	1D-:	:maj
8ee-\L]	.	.
8dd-\	.	.
8cc\	.	.
8b-\J	.	.
=10||	.	.
8ee-\L	1G-:	:dom
8dd-\J	.	.
4r	.	.
8gg-\L	.	.
8ff-\	.	.
8ee-\	.	.
8dd-\J	.	.
=11	.	.
8cc\L	1A-:	:maj
8cc\	.	.
8cc#\	.	.
8dd\J	.	.
8ee-\L	.	.
8dd-\	.	.
8ccn\	.	.
8b-\J	.	.
=12	.	.
8a\L	1F:	:dom
8cc\	.	.
8ee-\	.	.
8ff\J	.	.
12gg-\L	.	.
12aa-\	.	.
12gg-\J	.	.
8ff\L	.	.
8ee-\J	.	.
=13	.	.
8dd\L	1F:	:dom
8cc\	.	.
8b\	.	.
8a\J	.	.
8b-/L	.	.
8a-/	.	.
8c/	.	.
8e-/J	.	.
=14	.	.
12g/L	1B-:dom:	:dom:4#
12g-/	.	.
12f/J	.	.
4e/}	.	.
2r	.	.
=15	.	.
{8ee-/L	1B-:	:min
8dd-/	.	.
8f/	.	.
8a-/J	.	.
8cc/L	.	.
8b-/	.	.
8f/	.	.
8a-/J	.	.
=16	.	.
8g\L	1E-:	:dom
8b-\	.	.
8dd-\	.	.
8b-\J	.	.
12ee\L	.	.
12ff#\	.	.
12ee\J	.	.
8ee-\L	.	.
8dd-\J	.	.
=17	.	.
4cc\}	1A-:	:maj
4r	.	.
*>head1aa	*>head1aa	*>head1aa
{12gg\L	.	.
12aa-\	.	.
12gg\J	.	.
8ff\L	.	.
8ee\J	.	.
=18||	.	.
8ee-\L	1F:	:dom
8dd-\	.	.
8cc\	.	.
8b-\J	.	.
8a/L	.	.
8c/	.	.
8e-/	.	.
8f/J	.	.
=19	.	.
12g-/L	1B-:	:dom
12a-/	.	.
12g-/J	.	.
8f/L	.	.
8e-/J	.	.
8d/L	.	.
8f/	.	.
8a-/	.	.
8cc/J	.	.
=20	.	.
8g/L	1B-:	:dom
8f/J}	.	.
4r	.	.
4r	.	.
{8g/L	.	.
8f/J	.	.
=21	.	.
8e/L	1G:	:h7
8f/	.	.
8g/	.	.
8a/J	.	.
8b-/L	.	.
8a/	.	.
8g/	.	.
8f/J	.	.
=22	.	.
12dd-\L	1C:	:dom
12ee-\	.	.
12dd-\J	.	.
8cc\L	.	.
8b-\J	.	.
12a-/L	.	.
12b-/	.	.
12a-/J	.	.
8g/L	.	.
8e/J	.	.
=23	.	.
4f/}	1F:	:min
4r	.	.
2r	.	.
=24	.	.
2r	1C:	:dom
4r	.	.
8r	.	.
{8g/	.	.
=25	.	.
8cc\L	1F:	:min
8b\	.	.
8cc\	.	.
8cc#\J	.	.
8dd\L	.	.
8cc#\	.	.
8dd\	.	.
8ee-\J	.	.
=26||	.	.
8ff-\L	1C:	:dom
8ee-\	.	.
8een\	.	.
8ee-\J	.	.
8dd\L	.	.
8dd-\	.	.
8cc\	.	.
8b-\J	.	.
=27	.	.
8a-/L	1F:	:min
16b-/L	.	.
16a-/J	.	.
8g/	.	.
8a-/J	.	.
8b-/L	.	.
8a-/	.	.
8g/	.	.
8f/J	.	.
=28	.	.
8B/L	1B:	:o7
8d/	.	.
8f/	.	.
8a-/J	.	.
8b\L	.	.
8gg\	.	.
8ff\	.	.
8ee\J	.	.
=29	.	.
8ee-\L	2C:	:min
8dd-\	.	.
8cc\	.	.
8b-\J	.	.
8a/L	2F:	:dom
8g-/	.	.
8f/	.	.
8e-/J	.	.
=30	.	.
8d-/L	2B-:	:min
8f/	.	.
8a-/	.	.
8cc/J	.	.
8b-/L	2E-:	:dom
8a-/	.	.
8g/	.	.
8f/J	.	.
=31	.	.
4a-/}	1A-:	:maj
4r	.	.
8r	.	.
*>solo1a	*>solo1a	*>solo1a
{8e-/L	.	.
8f/	.	.
8g/J	.	.
=32	.	.
8a-/L	2B-:	:min
8g/	.	.
8f/	.	.
8e/J	.	.
8e-/L	2E-:	:dom
8d-/J	.	.
12c/L	.	.
12d-/	.	.
12dn/J	.	.
=33	.	.
8e-/L	1A-:	:maj
8c/	.	.
8d-/	.	.
[8e-/J	.	.
4e-/]}	.	.
4r	.	.
=34||	.	.
2r	1F:	:dom
4r	.	.
8r	.	.
{8c/	.	.
=35	.	.
8g/L	1B-:	:dom
8f/	.	.
8d/	.	.
8B-/J	.	.
4c/}	.	.
4r	.	.
=36	.	.
1r	1B-:	:dom
=37	.	.
8r	1B-:	:min
{16B-/LL	.	.
16d-/JJ	.	.
12f/L	.	.
12a-/	.	.
12cc/J	.	.
8ee-\L	.	.
8dd\	.	.
8dd-\	.	.
8cc\J	.	.
=38	.	.
8b-/L	1E-:	:dom
8a/	.	.
8a-/	.	.
8g/J	.	.
8g-/L	.	.
8f/	.	.
8e/	.	.
8d/J	.	.
=39	.	.
4e-/	1A-:	:maj
4r	.	.
8r	.	.
8d-/	.	.
4c/}	.	.
=40	.	.
2r	2E-:	:min
{8b-/L	2A-:	:dom
8g-/	.	.
8e-/J	.	.
8r	.	.
=41	.	.
8a-/L	1D-:	:dom
8e/J	.	.
12f/L	.	.
12a-/	.	.
12cc/J	.	.
8ee-\L	.	.
[8dd-\J	.	.
4dd-\]	.	.
=42||	.	.
4r	1G-:	:dom
8r	.	.
8gg-\	.	.
8ee\L	.	.
8a-\	.	.
8b\	.	.
8ee-\J	.	.
=43	.	.
8dd-\	1A-:	:maj
8r	.	.
4r	.	.
8r	.	.
[8cc\	.	.
4cc\]	.	.
=44	.	.
8ee-\L	1F:	:dom
8dd-\	.	.
8cc\	.	.
8b-\J	.	.
4a/	.	.
4e-/	.	.
=45	.	.
12g-/L	1B-:	:dom
12a-/	.	.
12g-/J	.	.
8f/L	.	.
8e-/J	.	.
8d/L	.	.
8f/	.	.
8a-/	.	.
8cc/J	.	.
=46	.	.
f#q/	1B-:	:dom
4g/	.	.
8b-/L	.	.
8g/J	.	.
8a-/L	.	.
8f#/J}	.	.
4r	.	.
=47	.	.
2r	1B-:	:min
8r	.	.
{16B-/LL	.	.
16d-/J	.	.
8f/	.	.
8a-/J	.	.
=48	.	.
8g/L	1E-:	:dom
8f/	.	.
8e-/	.	.
8B-/J	.	.
8g-/L	.	.
8f/J	.	.
4f-/	.	.
=49	.	.
8r	1A-:	:maj
*>solo1aa	*>solo1aa	*>solo1aa
8c/L	.	.
8d-/	.	.
8e/J	.	.
8e-/L	.	.
8d-/	.	.
8c/	.	.
8B-/J	.	.
=50||	.	.
8A/L	1F:	:dom
8c/	.	.
8e-/	.	.
8A/J	.	.
8g-/L	.	.
8f/	.	.
8e-/	.	.
8c/J	.	.
=51	.	.
8g/L	1B-:	:dom
8f/	.	.
8d/	.	.
8B-/J	.	.
4c/}	.	.
4r	.	.
=52	.	.
1r	1B-:	:dom
=53	.	.
4r	1G:	:h7
{8g/L	.	.
8f/J	.	.
12e/L	.	.
12g/	.	.
12b-/J	.	.
8dd-\L	.	.
[8cc\J	.	.
=54	.	.
4cc\]	1C:	:dom
24b-\LL	.	.
24cc\	.	.
24b-\JJ	.	.
8a-/	.	.
8g/L	.	.
8f/	.	.
8e/	.	.
8G/J	.	.
=55	.	.
8B-/L	1F:	:min
8d-/	.	.
8c/	.	.
8B-/J	.	.
4A-/	.	.
8cc\L	.	.
8b-\J	.	.
=56	.	.
8a-/L	1C:	:dom
8g-/	.	.
8e/	.	.
8B/J	.	.
8d-/L	.	.
8e/	.	.
8e-/	.	.
8d-/J	.	.
=57	.	.
8c/L	1F:	:min
8e-/	.	.
8f/	.	.
8g/J	.	.
8b-/L	.	.
8a-/	.	.
8g/	.	.
8f/J	.	.
=58||	.	.
8e/L	1C:	:dom
8G/	.	.
8B-/	.	.
8d-/J	.	.
8B-/L	.	.
8G/	.	.
8c/	.	.
8G/J	.	.
=59	.	.
8B-/L	1F:	:min
8G/	.	.
8A-/	.	.
8F/J}	.	.
2r	.	.
=60	.	.
1r	1B:	:o7
=61	.	.
8r	2C:	:min
{8B/	.	.
12c/L	.	.
12e-/	.	.
12g/J	.	.
8a-/L	2F:	:dom
8f/	.	.
8g/	.	.
8a-/J	.	.
=62	.	.
24g/LL	2B-:	:o7
24a-/	.	.
24g/JJ	.	.
8f/	.	.
4a-/	.	.
4r	2E-:	:dom
8r	.	.
8B/	.	.
=63	.	.
12c/L	1A-:	:maj
12e-/	.	.
12g/J	.	.
8a-/L	.	.
8f/J	.	.
8g/L	.	.
8a-/J	.	.
24g/LL	.	.
24a-/	.	.
24g/JJ	.	.
8f/	.	.
=64	.	.
4a-/}	2B-:	:min
8r	.	.
*>solo2a	*>solo2a	*>solo2a
{8B/	.	.
12c/L	1E-:	:dom
12e-/	.	.
12g/J	.	.
8a-/L	.	.
8f/J	.	.
=65	.	.
8g/L	1A-:	:maj
8a-/J	.	.
24g/LL	.	.
24a-/	.	.
24g/JJ	.	.
8f/	.	.
8a-/L	.	.
8g/	.	.
8f/	.	.
8e/J	.	.
=66||	.	.
8e-/L	1F:	:dom
8d-/	.	.
8c/	.	.
8B-/J	.	.
8A/L	.	.
8g-/	.	.
8e-/	.	.
8en/J	.	.
=67	.	.
8f/L	1B-:	:dom
8d/	.	.
8B-/	.	.
8A-/J	.	.
4c/}	.	.
4r	.	.
=68	.	.
1r	1B-:	:dom
=69	.	.
8r	1B-:	:min
{16B-/LL	.	.
16d-/JJ	.	.
12f/L	.	.
12a-/	.	.
12cc/J	.	.
8ee-\L	.	.
8dd\	.	.
8dd-\	.	.
8cc\J	.	.
=70	.	.
8b-/L	1E-:	:dom
8a/	.	.
8a-/	.	.
8g/J	.	.
8g-/L	.	.
8f/	.	.
8e/	.	.
8d/J	.	.
=71	.	.
8e-/L	1A-:	:maj
8B/J	.	.
12c/L	.	.
12e-/	.	.
12g/J	.	.
8b-/L	.	.
8g-/	.	.
8e-/	.	.
8B-/J	.	.
=72	.	.
8d-/L	2E-:	:min
8B/	.	.
8c/	.	.
[8e/J	.	.
8e/L]	2A-:	:dom
8e-/	.	.
8a-/	.	.
8g-/J	.	.
=73	.	.
4f/	1D-:	:maj
8r	.	.
8d-/	.	.
8e-/L	.	.
8c/	.	.
8d-/	.	.
[8en/J	.	.
=74||	.	.
4e/]}	1G-:	:dom
4r	.	.
2r	.	.
=75	.	.
2r	1A-:	:maj
{8b\L	.	.
8cc\	.	.
8ee-\	.	.
[8gg\J	.	.
=76	.	.
4gg\]	1F:	:dom
8ff\L	.	.
8ee\J	.	.
8ee-\L	.	.
8dd-\	.	.
8cc\	.	.
8b-\J	.	.
=77	.	.
4a/	1B-:	:dom
8e-/L	.	.
8c/J	.	.
8g-/L	.	.
16a-/L	.	.
16g-/J	.	.
8f/	.	.
8e-/J	.	.
=78	.	.
8d/L	1B-:	:dom
8f/	.	.
8a-/	.	.
8cc/J	.	.
12g/L	.	.
12a-/	.	.
12an/J	.	.
8b-/L	.	.
8g/J	.	.
=79	.	.
4a-/}	1B-:	:min
4r	.	.
8r	.	.
{8B-/L	.	.
8c/	.	.
[8d-/J	.	.
=80	.	.
4d-/]	1E-:	:dom
4r	.	.
8g-/L	.	.
8f/	.	.
8e/	.	.
8dn/J	.	.
=81	.	.
8e-/L	1A-:	:maj
8c/J}	.	.
*>solo2aa	*>solo2aa	*>solo2aa
4r	.	.
2r	.	.
=82||	.	.
4r	1F:	:dom
8r	.	.
{8c/	.	.
8g/L	.	.
8f/	.	.
8e-/	.	.
8d-/J	.	.
=83	.	.
8c/L	1B-:	:dom
8B-/J	.	.
12A/L	.	.
12B-/	.	.
12c/J	.	.
8e-/L	.	.
8g-/	.	.
8f/	.	.
8e-/J	.	.
=84	.	.
8d/L	1B-:	:dom
8g/J}	.	.
4r	.	.
2r	.	.
=85	.	.
2r	1G:	:h7
{8g/L	.	.
8f/J	.	.
12e/L	.	.
12g/	.	.
12b-/J	.	.
=86	.	.
4dd-\	1C:	:dom
8g/L	.	.
[8cc/J	.	.
4cc\]	.	.
8b-/L	.	.
8g/J	.	.
=87	.	.
8a-/L	1F:	:min
8f/J}	.	.
4r	.	.
2r	.	.
=88	.	.
1r	1C:	:dom
=89	.	.
8r	1F:	:min
{8B/	.	.
12c/L	.	.
12e-/	.	.
12g/J	.	.
8b-/L	.	.
8a-/	.	.
8g/	.	.
8f/J	.	.
=90||	.	.
8e/L	1C:	:dom
8G/	.	.
8B-/	.	.
8d-/J	.	.
8B-/L	.	.
8G/	.	.
8c/	.	.
8G/J	.	.
=91	.	.
8B-/L	1F:	:min
8G/	.	.
8A-/	.	.
[8F/J	.	.
4F/]}	.	.
4r	.	.
=92	.	.
8r	1B:	:o7
{8B/	.	.
12c/L	.	.
12e-/	.	.
12g/J	.	.
8b-/L	.	.
8a-/	.	.
8g/	.	.
8f/J	.	.
=93	.	.
8e-/L	2C:	:min
8d-/	.	.
8c/	.	.
8B-/J	.	.
8A/L	2F:	:dom
8g-/	.	.
8e-/	.	.
8en/J	.	.
=94	.	.
8f/L	2B-:	:min
8d-/	.	.
8B-/	.	.
8A-/J	.	.
8G/L	2E-:	:dom
8e/	.	.
8d-/	.	.
8dn/J	.	.
=95	.	.
8e-/L	1A-:	:maj
8B/	.	.
8c/	.	.
8e-/J	.	.
8b-/L	.	.
8g/J	.	.
4a-/}	.	.
=96	.	.
4r	2B-:	:min
8r	.	.
{[8cc\	.	.
4cc\]	2E-:	:dom
8ee-\L	.	.
[8b-\J	.	.
=97	.	.
2b-\]}	1A-:	:maj
2r	.	.
==	.	.
*-	*-	*-
